assets/img/components/badge.svg

<svg width="272" height="143" viewBox="0 0 272 143" fill="none" xmlns="http://www.w3.org/2000/svg">
<rect width="272" height="143" rx="8" fill="#EFF6FB"/>
<rect x="211" y="120" width="146" height="37" rx="18.5" transform="rotate(180 211 120)" fill="#EDEDED" stroke="#BEC0C1" stroke-width="2"/>
<path d="M107 102C107 100.343 108.343 99 110 99H157C158.657 99 160 100.343 160 102V102C160 103.657 158.657 105 157 105H110C108.343 105 107 103.657 107 102V102Z" fill="#457AA5"/>
<path d="M166 102C166 100.343 167.343 99 169 99H188C189.657 99 191 100.343 191 102V102C191 103.657 189.657 105 188 105H169C167.343 105 166 103.657 166 102V102Z" fill="#154973"/>
<rect x="192.585" y="62.1172" width="127.169" height="37.1176" rx="18.5588" transform="rotate(180 192.585 62.1172)" fill="#E5EFFA" stroke="#BEC0C1" stroke-width="2"/>
<path d="M89.5615 92.1963C94.6674 92.1963 98.8066 96.3355 98.8066 101.441C98.8066 106.547 94.6674 110.687 89.5615 110.687C84.4556 110.687 80.3164 106.547 80.3164 101.441C80.3164 96.3355 84.4556 92.1963 89.5615 92.1963Z" stroke="#154973" stroke-width="2"/>
<path d="M87.9121 103.931L85.3827 101.389C85.1674 101.172 84.8921 101.063 84.5591 101.063C84.2262 101.063 83.9509 101.172 83.7356 101.389C83.5203 101.605 83.4121 101.881 83.4121 102.216C83.4121 102.551 83.5203 102.827 83.7356 103.044L87.0886 106.414C87.3238 106.65 87.598 106.768 87.9121 106.768C88.2262 106.768 88.5003 106.65 88.7356 106.414L95.3827 99.7332C95.598 99.5164 95.7062 99.2405 95.7062 98.9055C95.7062 98.5705 95.598 98.2946 95.3827 98.0778C95.1675 97.8611 94.8922 97.7527 94.5592 97.7527C94.2262 97.7527 93.9509 97.8611 93.7356 98.0778L87.9121 103.931Z" fill="#124A73"/>
<path d="M107 44C107 42.3431 108.343 41 110 41H170.5C172.157 41 173.5 42.3431 173.5 44V44C173.5 45.6569 172.157 47 170.5 47H110C108.343 47 107 45.6569 107 44V44Z" fill="#457AA5"/>
<path d="M80.308 51.2504C80.1241 51.2504 79.9569 51.2044 79.8064 51.1125C79.6559 51.0205 79.5389 50.8993 79.4553 50.7488C79.3717 50.5984 79.3257 50.4353 79.3174 50.2598C79.309 50.0842 79.355 49.9129 79.4553 49.7457L88.7346 33.6949C88.8349 33.5277 88.9645 33.4024 89.1234 33.3188C89.2822 33.2352 89.4452 33.1934 89.6124 33.1934C89.7796 33.1934 89.9426 33.2352 90.1014 33.3188C90.2603 33.4024 90.3899 33.5277 90.4902 33.6949L99.7695 49.7457C99.8698 49.9129 99.9158 50.0842 99.9074 50.2598C99.8991 50.4353 99.8531 50.5984 99.7695 50.7488C99.6859 50.8993 99.5689 51.0205 99.4184 51.1125C99.2679 51.2044 99.1007 51.2504 98.9168 51.2504H80.308ZM82.0385 49.2441H97.1863L89.6124 36.2029L82.0385 49.2441ZM89.6124 48.2409C89.8966 48.2409 90.1349 48.1448 90.3272 47.9525C90.5194 47.7602 90.6156 47.522 90.6156 47.2377C90.6156 46.9535 90.5194 46.7153 90.3272 46.523C90.1349 46.3307 89.8966 46.2346 89.6124 46.2346C89.3282 46.2346 89.0899 46.3307 88.8976 46.523C88.7054 46.7153 88.6092 46.9535 88.6092 47.2377C88.6092 47.522 88.7054 47.7602 88.8976 47.9525C89.0899 48.1448 89.3282 48.2409 89.6124 48.2409ZM89.6124 45.2314C89.8966 45.2314 90.1349 45.1353 90.3272 44.943C90.5194 44.7507 90.6156 44.5125 90.6156 44.2282V41.2187C90.6156 40.9345 90.5194 40.6962 90.3272 40.504C90.1349 40.3117 89.8966 40.2155 89.6124 40.2155C89.3282 40.2155 89.0899 40.3117 88.8976 40.504C88.7054 40.6962 88.6092 40.9345 88.6092 41.2187V44.2282C88.6092 44.5125 88.7054 44.7507 88.8976 44.943C89.0899 45.1353 89.3282 45.2314 89.6124 45.2314Z" fill="#154973"/>
</svg>

<svg xmlns="http://www.w3.org/2000/svg" width="272" height="143" fill="none" viewBox="0 0 272 143"><rect width="272" height="143" fill="#eff6fb" rx="8"/><rect width="146" height="37" x="211" y="120" fill="#ededed" stroke="#bec0c1" stroke-width="2" rx="18.5" transform="rotate(180 211 120)"/><path fill="#457aa5" d="M107 102a3 3 0 0 1 3-3h47a3 3 0 1 1 0 6h-47a3 3 0 0 1-3-3"/><path fill="#154973" d="M166 102a3 3 0 0 1 3-3h19a3 3 0 1 1 0 6h-19a3 3 0 0 1-3-3"/><rect width="127.169" height="37.118" x="192.585" y="62.117" fill="#e5effa" stroke="#bec0c1" stroke-width="2" rx="18.559" transform="rotate(180 192.585 62.117)"/><path stroke="#154973" stroke-width="2" d="M89.562 92.196a9.246 9.246 0 1 1-.001 18.49 9.246 9.246 0 0 1 0-18.49Z"/><path fill="#124a73" d="m87.912 103.931-2.53-2.542a1.11 1.11 0 0 0-.823-.326q-.5 0-.823.326a1.12 1.12 0 0 0-.324.827q0 .502.324.828l3.353 3.37q.352.354.823.354.47 0 .824-.354l6.647-6.68q.323-.326.323-.828 0-.503-.323-.828a1.11 1.11 0 0 0-.824-.325q-.5 0-.823.325z"/><path fill="#457aa5" d="M107 44a3 3 0 0 1 3-3h60.5a3 3 0 1 1 0 6H110a3 3 0 0 1-3-3"/><path fill="#154973" d="M80.308 51.25a.976.976 0 0 1-.853-.502 1.1 1.1 0 0 1-.138-.488.9.9 0 0 1 .138-.514l9.28-16.051q.15-.251.388-.376.239-.126.49-.126.25 0 .488.126a1 1 0 0 1 .39.376l9.278 16.05a.9.9 0 0 1 .138.515 1.1 1.1 0 0 1-.138.489.98.98 0 0 1-.852.501zm1.73-2.006h15.148l-7.574-13.041zm7.574-1.003a.97.97 0 0 0 .715-.288.97.97 0 0 0 .289-.715.97.97 0 0 0-.289-.715.97.97 0 0 0-.715-.288.97.97 0 0 0-.714.288.97.97 0 0 0-.289.715q0 .426.289.715a.97.97 0 0 0 .714.288m0-3.01a.97.97 0 0 0 .715-.288.97.97 0 0 0 .289-.715v-3.01a.97.97 0 0 0-.289-.714.97.97 0 0 0-.715-.288.97.97 0 0 0-.714.288.97.97 0 0 0-.289.715v3.01q0 .426.289.714a.97.97 0 0 0 .714.288"/></svg>
